svgs/sharp-solid/waveform-lines.svg

<svg xmlns="http://www.w3.org/2000/svg" viewBox="0 0 640 512"><!--! Font Awesome Pro 6.6.0 by @fontawesome - https://fontawesome.com License - https://fontawesome.com/license (Commercial License) Copyright 2024 Fonticons, Inc. --><path d="M352 32l0-32L288 0l0 32 0 448 0 32 64 0 0-32 0-448zM544 96l0-32-64 0 0 32 0 320 0 32 64 0 0-32 0-320zM256 128l0-32-64 0 0 32 0 256 0 32 64 0 0-32 0-256zm192 32l0-32-64 0 0 32 0 192 0 32 64 0 0-32 0-192zM160 224l0-32-64 0 0 32 0 64 0 32 64 0 0-32 0-64zM0 224l0 64 64 0 0-64L0 224zm576 0l0 64 64 0 0-64-64 0z"/></svg>

<svg xmlns="http://www.w3.org/2000/svg" viewBox="0 0 640 512"><!--! Font Awesome Pro 6.4.2 by @fontawesome - https://fontawesome.com License - https://fontawesome.com/license (Commercial License) Copyright 2023 Fonticons, Inc. --><path d="M352 32V0H288V32 480v32h64V480 32zM544 96V64H480V96 416v32h64V416 96zM256 128V96H192v32V384v32h64V384 128zm192 32V128H384v32V352v32h64V352 160zM160 224V192H96v32 64 32h64V288 224zM0 224v64H64V224H0zm576 0v64h64V224H576z"/></svg>
